X:1
T:E minor Jacob French, 1802
T:Isaac Watts, 1709 (Hymn 52, Book 2)   86. 86. (C. M.)
T:Middlesex
T:Transcribed from Harmony of Harmony, 1802
%%score [ 1 2 3 4 ]
L:1/8
Q:1/4=140
M:4/4
K:G
V:1 treble nm="Treble" snm="Tr."
V:2 treble nm="Counter" snm="C."
V:3 treble-8 nm="Tenor" snm="T."
V:4 bass nm="Bass" snm="B."
V:1
 B4 B2 d2 | d6 A2 | B4 B4 | B8 | B4 B2 d2 | d4 d4 | d8 | d4 d2 d2 | d6 d2 | (A2 B2 c2) c2 | B6 G2 | %11
w: 1.~Death! 'Tis a|mel- an-|cho- ly|day|To those who|have no|God,|When the poor|soul is|forced~ _ _ a-|way To|
w: 2.~In vain to|heav'n she|lifts her|eyes,|But guilt, a|hea- vy|chain,|Still drags her|down- ward|from~ _ _ the|skies To|
 (d2 B2 A2) c2 | B4 B4 | B8 |] %14
w: seek~ _ _ her|last a-|bode.|
w: dark- * * ness,|fire, and|pain.|
V:2
 E4 E2 F2 | G6 D2 | E4 ^D4 | E8 | ^D4 E2 F2 | G4 F4 | G8 | G4 G2 G2 | F6 G2 | (E4 F2) G2 | F6 E2 | %11
w: 3.~A- wake and|mourn, ye|heirs of|hell,|Let stub- born|sin- ners|fear;|You must be|driv'n from|earth~ _ and|dwell A|
w: 4.~See how the|pit gapes|wide for|you,|And fla- shes|in your|face:|And thou, my|soul, look|down- * wards|too, And|
 (D2 F2 G2) F2 | E4 ^D4 | E8 |] %14
w: long~ _ _ for-|ev- er|there.|
w: sing~ _ _ re-|cov'- ring|grace.|
V:3
 E4 G2 A2 | B6 A2 | G4 F4 | E8 | F4 G2 A2 | B4 A4 | B8 | B4 B2 B2 | A6 B2 | (c2 B2 A2) G2 | d6 c2 | %11
w: 5.~He is a|God of|sove- reign|love,|That pro- mised|heav'n to|me,|And taught my|thoughts to|soar~ _ _ a-|bove, Where|
w: 6.~Pre- pare me,|Lord, for|thy right|hand,|Then come the|joy- ful|day,|Come, death, and|some ce-|les- * * tial|band, To|
 (B2 d2 e2) A2 | G4 F4 | E8 |] %14
w: hap- * * py|spi- rits|be.|
w: bear~ _ _ my|soul a-|way.|
V:4
 E,4 E,2 D,2 | G,6 F,2 | E,4 B,,4 | E,8 | B,,4 E,2 D,2 | [G,,B,,]4 D,4 | G,,8 | %7
 [G,,G,]4 [G,,G,]2 [G,,G,]2 | D,6 G,2 | (A,2 G,2 F,2) E,2 | [B,,B,]6 E,2 | (G,2 F,2 E,2) A,2 | %12
 B,4 B,,4 | E,8 |] %14

